docs/img/svg/print.svg

<svg xmlns="http://www.w3.org/2000/svg" preserveAspectRatio="xMidYMid" width="17" height="17" viewBox="0 0 17 17"><defs><style>.cls-1{fill:#818181;fill-rule:evenodd}</style></defs><path d="M16.4 14.425h-3.35V16.4c0 .337-.264.6-.6.6h-7.9a.593.593 0 0 1-.6-.6v-1.975H.6a.612.612 0 0 1-.6-.6V3.175c0-.337.263-.6.6-.6h3.35V.6c0-.337.263-.6.6-.6h7.9c.336 0 .6.263.6.6v1.975h3.35c.337 0 .6.263.6.6v10.65c0 .337-.263.6-.6.6zM5.15 15.8h6.7v-4.945h-6.7V15.8zm6.7-14.6h-6.7v1.375h6.7V1.2zm3.95 2.574H1.2v9.451h2.765v-2.37H2.897a.593.593 0 0 1-.6-.6c0-.336.263-.599.6-.599h11.221c.336 0 .6.263.6.599 0 .337-.264.6-.6.6H13.05v2.37h2.75V3.774zm-2.575 3.087h-1.55a.593.593 0 0 1-.6-.6c0-.336.263-.599.6-.599h1.55c.337 0 .6.263.6.599 0 .337-.263.6-.6.6z" class="cls-1"/></svg>

<svg xmlns="http://www.w3.org/2000/svg" xmlns:xlink="http://www.w3.org/1999/xlink" preserveAspectRatio="xMidYMid" width="17" height="17" viewBox="0 0 17 17">
  <defs>
    <style>
      .cls-1 {
        fill: #818181;
        fill-rule: evenodd;
      }
    </style>
  </defs>
  <path d="M16.400,14.425 L13.050,14.425 L13.050,16.400 C13.050,16.737 12.786,17.000 12.450,17.000 L4.550,17.000 C4.213,17.000 3.950,16.737 3.950,16.400 L3.950,14.425 L0.600,14.425 C0.278,14.425 -0.000,14.147 -0.000,13.825 L-0.000,3.175 C-0.000,2.838 0.263,2.575 0.600,2.575 L3.950,2.575 L3.950,0.600 C3.950,0.263 4.213,-0.000 4.550,-0.000 L12.450,-0.000 C12.786,-0.000 13.050,0.263 13.050,0.600 L13.050,2.575 L16.400,2.575 C16.737,2.575 17.000,2.838 17.000,3.175 L17.000,13.825 C17.000,14.162 16.737,14.425 16.400,14.425 ZM5.150,15.800 L11.850,15.800 L11.850,10.855 L5.150,10.855 L5.150,15.800 ZM11.850,1.200 L5.150,1.200 L5.150,2.575 L11.850,2.575 L11.850,1.200 ZM15.800,3.774 L12.450,3.774 L4.550,3.774 L1.200,3.774 L1.200,13.225 L3.965,13.225 L3.965,10.855 L2.897,10.855 C2.560,10.855 2.297,10.592 2.297,10.255 C2.297,9.919 2.560,9.656 2.897,9.656 L4.550,9.656 L12.450,9.656 L14.118,9.656 C14.454,9.656 14.718,9.919 14.718,10.255 C14.718,10.592 14.454,10.855 14.118,10.855 L13.050,10.855 L13.050,13.225 L15.800,13.225 L15.800,3.774 ZM13.225,6.861 L11.675,6.861 C11.338,6.861 11.075,6.598 11.075,6.261 C11.075,5.925 11.338,5.662 11.675,5.662 L13.225,5.662 C13.562,5.662 13.825,5.925 13.825,6.261 C13.825,6.598 13.562,6.861 13.225,6.861 Z" class="cls-1"/>
</svg>
